packages/kaspersky-hexa-ui-icons/src/iconsSVGs/48/VulnerabilityScan.svg

<svg width="48" height="48" viewBox="0 0 48 48" fill="none" xmlns="http://www.w3.org/2000/svg">
<path fill-rule="evenodd" clip-rule="evenodd" d="M36.1005 30.5152L34.0128 32.6028L31.4428 30.0328C37.9493 22.7628 37.4869 11.6346 30.3998 4.92938C23.3127 -1.77585 12.1759 -1.62169 5.27713 5.27713C-1.62169 12.1759 -1.77585 23.3127 4.92938 30.3998C11.6346 37.4869 22.7628 37.9493 30.0328 31.4428L32.6028 34.0128L30.5152 36.1005L42.3957 47.981L47.981 42.3957L36.1005 30.5152ZM18.0864 34.0401C9.27546 34.0401 2.13276 26.8974 2.13276 18.0864C2.13276 9.27546 9.27546 2.13276 18.0864 2.13276C26.8974 2.13276 34.0401 9.27546 34.0401 18.0864C34.03 26.8932 26.8932 34.03 18.0864 34.0401ZM33.3351 36.1005L36.1005 33.3351L45.1611 42.3957L42.3957 45.1611L33.3351 36.1005ZM26.0613 15.0951H21.0777V6.42742C21.0777 5.95246 20.772 5.53147 20.3204 5.38447C19.8687 5.23747 19.3738 5.39787 19.0942 5.78183L9.22398 19.3367C8.9818 19.6704 8.94724 20.1117 9.13451 20.4791C9.32179 20.8464 9.69926 21.0777 10.1116 21.0777H15.0951V29.7449C15.0943 30.2203 15.3999 30.642 15.8518 30.7893C16.3037 30.9367 16.7991 30.776 17.0786 30.3915L26.9494 16.8361C27.1916 16.5024 27.2261 16.0609 27.0387 15.6936C26.8513 15.3262 26.4737 15.095 26.0613 15.0951ZM17.0893 26.9883V20.1804C17.0885 19.575 16.5979 19.0843 15.9924 19.0835H11.875L19.0835 9.18455V15.9924C19.0843 16.5979 19.575 17.0885 20.1804 17.0893H24.2979L17.0893 26.9883Z"  fill="currentColor"/>
</svg>

<svg xmlns="http://www.w3.org/2000/svg" width="48" height="48" fill="none" viewBox="0 0 48 48"><path fill="currentColor" fill-rule="evenodd" d="m36.1005 30.5152-2.0877 2.0876-2.57-2.57c6.5065-7.27 6.0441-18.3982-1.043-25.1034s-18.2239-6.551-25.1227.3477-7.053 18.0356-.3477 25.1227c6.7052 7.0871 17.8334 7.5495 25.1034 1.043l2.57 2.57-2.0876 2.0877L42.3957 47.981l5.5853-5.5853zm-18.0141 3.5249c-8.811 0-15.9536-7.1427-15.9536-15.9537S9.2755 2.1328 18.0864 2.1328s15.9537 7.1427 15.9537 15.9536C34.03 26.8932 26.8932 34.03 18.0864 34.0401m15.2487 2.0604 2.7654-2.7654 9.0606 9.0606-2.7654 2.7654zm-7.2738-21.0054h-4.9836V6.4274a1.0968 1.0968 0 0 0-1.9835-.6456L9.224 19.3367a1.0968 1.0968 0 0 0 .8876 1.741h4.9835v8.6672a1.0965 1.0965 0 0 0 1.9835.6466l9.8708-13.5554a1.0967 1.0967 0 0 0-.8881-1.741m-8.972 11.8932v-6.8079c-.0008-.6054-.4914-1.0961-1.0969-1.0969H11.875l7.2085-9.899v6.8079c.0008.6055.4915 1.0961 1.0969 1.0969h4.1175z" clip-rule="evenodd"/></svg>
